src/assets/insta.svg

<svg width="25" height="25" viewBox="0 0 25 25" fill="none" xmlns="http://www.w3.org/2000/svg">
<path fill-rule="evenodd" clip-rule="evenodd" d="M12.5 18.75C15.9518 18.75 18.75 15.9518 18.75 12.5C18.75 9.04822 15.9518 6.25 12.5 6.25C9.04822 6.25 6.25 9.04822 6.25 12.5C6.25 15.9518 9.04822 18.75 12.5 18.75ZM12.5 16.6667C14.8011 16.6667 16.6667 14.8011 16.6667 12.5C16.6667 10.1988 14.8011 8.33333 12.5 8.33333C10.1988 8.33333 8.33333 10.1988 8.33333 12.5C8.33333 14.8011 10.1988 16.6667 12.5 16.6667Z" fill="#0F0F0F"/>
<path d="M18.7499 5.20834C18.1746 5.20834 17.7083 5.67472 17.7083 6.25001C17.7083 6.8253 18.1746 7.29168 18.7499 7.29168C19.3252 7.29168 19.7916 6.8253 19.7916 6.25001C19.7916 5.67472 19.3252 5.20834 18.7499 5.20834Z" fill="#0F0F0F"/>
<path fill-rule="evenodd" clip-rule="evenodd" d="M1.72296 4.45423C1.04175 5.79118 1.04175 7.54135 1.04175 11.0417V13.9583C1.04175 17.4587 1.04175 19.2089 1.72296 20.5457C2.32216 21.7218 3.27829 22.6779 4.45431 23.2771C5.79126 23.9583 7.54143 23.9583 11.0417 23.9583H13.9584C17.4587 23.9583 19.2089 23.9583 20.5458 23.2771C21.7219 22.6779 22.678 21.7218 23.2772 20.5457C23.9584 19.2089 23.9584 17.4587 23.9584 13.9583V11.0417C23.9584 7.54135 23.9584 5.79118 23.2772 4.45423C22.678 3.27821 21.7219 2.32209 20.5458 1.72288C19.2089 1.04167 17.4587 1.04167 13.9584 1.04167H11.0417C7.54143 1.04167 5.79126 1.04167 4.45431 1.72288C3.27829 2.32209 2.32216 3.27821 1.72296 4.45423ZM13.9584 3.12501H11.0417C9.25721 3.12501 8.04409 3.12663 7.10641 3.20323C6.19304 3.27786 5.72596 3.41312 5.40012 3.57914C4.61611 3.97862 3.9787 4.61604 3.57922 5.40005C3.4132 5.72588 3.27794 6.19296 3.20331 7.10634C3.12671 8.04402 3.12508 9.25713 3.12508 11.0417V13.9583C3.12508 15.7429 3.12671 16.9559 3.20331 17.8937C3.27794 18.8071 3.4132 19.2742 3.57922 19.6C3.9787 20.384 4.61611 21.0214 5.40012 21.4208C5.72596 21.5869 6.19304 21.7222 7.10641 21.7968C8.04409 21.8733 9.25721 21.875 11.0417 21.875H13.9584C15.743 21.875 16.956 21.8733 17.8937 21.7968C18.8072 21.7222 19.2742 21.5869 19.6001 21.4208C20.384 21.0214 21.0214 20.384 21.4209 19.6C21.587 19.2742 21.7223 18.8071 21.7969 17.8937C21.8734 16.9559 21.8751 15.7429 21.8751 13.9583V11.0417C21.8751 9.25713 21.8734 8.04402 21.7969 7.10634C21.7223 6.19296 21.587 5.72588 21.4209 5.40005C21.0214 4.61604 20.384 3.97862 19.6001 3.57914C19.2742 3.41312 18.8072 3.27786 17.8937 3.20323C16.956 3.12663 15.743 3.12501 13.9584 3.12501Z" fill="#0F0F0F"/>
</svg>

<svg xmlns="http://www.w3.org/2000/svg" width="25" height="25" fill="none" viewBox="0 0 25 25"><path fill="#0f0f0f" fill-rule="evenodd" d="M12.5 18.75a6.25 6.25 0 1 0 0-12.5 6.25 6.25 0 0 0 0 12.5m0-2.083a4.167 4.167 0 1 0 0-8.334 4.167 4.167 0 0 0 0 8.334" clip-rule="evenodd"/><path fill="#0f0f0f" d="M18.75 5.208a1.042 1.042 0 1 0 0 2.084 1.042 1.042 0 0 0 0-2.084"/><path fill="#0f0f0f" fill-rule="evenodd" d="M1.723 4.454c-.681 1.337-.681 3.087-.681 6.588v2.916c0 3.5 0 5.25.681 6.588a6.25 6.25 0 0 0 2.731 2.731c1.337.681 3.087.681 6.588.681h2.916c3.5 0 5.25 0 6.588-.68a6.25 6.25 0 0 0 2.731-2.732c.681-1.337.681-3.087.681-6.588v-2.916c0-3.5 0-5.25-.68-6.588a6.25 6.25 0 0 0-2.732-2.731c-1.337-.681-3.087-.681-6.588-.681h-2.916c-3.5 0-5.25 0-6.588.68a6.25 6.25 0 0 0-2.731 2.732m12.235-1.329h-2.916c-1.785 0-2.998.002-3.936.078-.913.075-1.38.21-1.706.376A4.17 4.17 0 0 0 3.58 5.4c-.167.326-.302.793-.377 1.706-.076.938-.078 2.151-.078 3.936v2.916c0 1.785.002 2.998.078 3.936.075.913.21 1.38.376 1.706A4.17 4.17 0 0 0 5.4 21.42c.326.167.793.302 1.706.377.938.076 2.151.078 3.936.078h2.916c1.785 0 2.998-.002 3.936-.078.913-.075 1.38-.21 1.706-.376a4.17 4.17 0 0 0 1.82-1.821c.167-.326.302-.793.377-1.706.076-.938.078-2.151.078-3.936v-2.916c0-1.785-.002-2.998-.078-3.936-.075-.913-.21-1.38-.376-1.706a4.17 4.17 0 0 0-1.82-1.82c-.327-.167-.794-.302-1.707-.377-.938-.076-2.151-.078-3.936-.078" clip-rule="evenodd"/></svg>
